X: 41559
T: Union Quay, The
R: jig
M: 6/8
K: Dmajor
|:A|DF/G/A BAF|dg/f/e dBA|DF/G/A BAF|E2E GFE|
DF/G/A BAF|dg/f/e dBA|F2F AFE|FDA D2:|
|:F/G/|A2A fdA|G2G GFG|ABA GFE|B2B AFG|
A2A fdA|G2G GFG|ABA GFE|D2D D2:|

